X:1
T:Title
%%score [ 1 2 3 4 ]
L:1/8
Q:1/4=80
M:4/4
K:C
V:1 treble nm="Soprano" snm="S"
V:2 treble nm="Alto" snm="A"
V:3 treble-8 nm="Tenor" snm="T"
V:4 bass nm="Bass" snm="B"
V:1
"^Im Himmelreich ein Haus steht""^Arranged for SATB by James Gibb""^Max Reger\n(1873-1916)" B2 | %1
w: Im|
 B3 B d2 c2 | B4 A2 A2 | c3 c f2 ec | d4 ^c2 =c2 | B3 B d2 c2 | B2 A2 c2 f2 | e3 d =B2 c2 | %8
w: Him- mel- reich ein|Haus steht, da-|hin ein gol- de- ner|Weg geht. Die|Säu- len die sind|Mar- mor- stein, da|leg- te un- ser|
 c2 B2 A2 G2 | =B2 f2 e2 d2 | d4 c4 | A4 c2 c2 | d4 =f4 | e2 d2 =B4 | A4 A2 A2 | c4 c4 | d4 d4 | %17
w: Herr hin- ein die|e- del- sten Ge-|stei- ne.|In die- ses|Haus geht|nie- mand ein,|der nicht von|al- len|Sün- den|
 (d4 ^c2 B2) | d8 | z2 =B2 d2 e2 | (d2 f2 e2) d2 | (d4 ^c2 B2) | d8 |] %23
w: rei\- * *|ne,|von al- len|Sün\- * * den|rei\- * *|ne.|
V:2
 E2 | G3 E F2 E2 | (D2 E2) F2 F2 | E3 E _B2 GF | F4 E2 E2 | E3 E F2 E2 | (DE) F2 E2 _B2 | %7
w: Im|Him- mel- reich ein|Haus * steht, da-|hin ein gol- de- ner|Weg geht. Die|Säu- len die sind|Mar\- * mor- stein, da|
 G3 F E2 E2 | F2 D2 ^C2 E2 | D2 F2 G2 F2 | F4 E4 | D4 E2 E2 | F4 F4 | G2 F2 D4 | =F4 F2 F2 | %15
w: leg- te un- ser|Herr hin- ein die|e- del- sten Ge-|stei- ne.|In die- ses|Haus geht|nie- mand ein,|der nicht von|
 E4 E4 | F4 G4 | E8 | F8 | z2 E2 F2 G2 | (F2 _B2 G2) F2 | E8 | ^F8 |] %23
w: al- len|Sün- den|rei-|ne,|von al- len|Sün\- * * den|rei-|ne.|
V:3
 G2 | G3 G A2 A2 | G4 F2 F2 | G3 G d2 cA | A4 A2 G2 | G3 G A2 A2 | G2 F2 G2 d2 | c3 A G2 A2 | %8
w: Im|Him- mel- reich ein|Haus steht, da-|hin ein gol- de- ner|Weg geht. Die|Säu- len die sind|Mar- mor- stein, da|leg- te un- ser|
 A2 G2 E2 E2 | G2 (AB) c2 A2 | _B4 G4 | ^F4 G2 G2 | _B4 A4 | c2 A2 G4 | A4 A2 A2 | A4 A4 | A4 _B4 | %17
w: Herr hin- ein die|e- del\- * sten Ge-|stei- ne.|In die- ses|Haus geht|nie- mand ein,|der nicht von|al- len|Sün- den|
 A8 | A8 | z2 G2 A2 =c2 | (A2 d2 c2) A2 | A8 | A8 |] %23
w: rei-|ne,|von al- len|Sün\- * * den|rei-|ne.|
V:4
 E,2 | E,3 E, D,2 A,,2 | (B,,2 C,2) D,2 D,2 | C,3 C, _B,,2 C,F, | D,4 A,,2 =C,2 | E,3 E, D,2 A,,2 | %6
w: Im|Him- mel- reich ein|Haus * steht, da-|hin ein gol- de- ner|Weg geht. Die|Säu- len die sind|
 (B,,C,) D,2 C,2 _B,,2 | C,3 D, E,2 A,,2 | F,,2 G,,2 A,,2 =C,2 | G,,2 D,2 C,2 D,2 | _B,,4 C,4 | %11
w: Mar\- * mor- stein, da|leg- te un- ser|Herr hin- ein die|e- del- sten Ge-|stei- ne.|
 D,4 C,2 C,2 | _B,,4 D,4 | C,2 D,2 G,,4 | D,4 D,2 D,2 | A,,4 A,,4 | D,4 G,,4 | A,,8 | D,8 | %19
w: In die- ses|Haus geht|nie- mand ein,|der nicht von|al- len|Sün- den|rei-|ne,|
 z2 E,2 D,2 C,2 | (D,2 _B,,2 C,2) D,2 | A,,8 | D,8 |] %23
w: von al- len|Sün\- * * den|rei-|ne.|

